X: 81
T:Jamaica
M:4/4s
L:1/4
Q:160
S:PLayford
O:Manuscript
K:F
F A A B/2c/2| d c d2| c A A G/2F/2| G2 F2 |F A A B/2c/2| d c d2| c A A G /2F/2 |G2 F2:|
|: f f e d/2c/2| d d c A| f f e/2f/2 g| d2 c2| f f e d/2c/2| d d c A| B/2c/2 d c B/2A/2||G2 F2:|

